32x32/apps/fiji.svg

<svg xmlns="http://www.w3.org/2000/svg" width="32" height="32" version="1"><rect style="opacity:.2" width="28" height="28" x="2" y="3" rx="1.4" ry="1.4"/><rect style="fill:#4f4f4f" width="28" height="28" x="2" y="2" rx="1.4" ry="1.4"/><path style="opacity:.2" d="M5 7v20h4V11h18V7H8zm6 6v8h4v-8zm6 0v10h-6v4h10V13zm6 0v14h4V13z"/><path style="fill:#3693ee" d="M5 6v20h4V10h18V6H8zm6 6v8h4v-8zm6 0v10h-6v4h10V12zm6 0v14h4V12z"/><path style="opacity:.2;fill:#f4f4f7" d="M5 6v1h22V6H5zm6 6v1h4v-1h-4zm6 0v1h4v-1h-4zm6 0v1h4v-1h-4zM11 22v1h6v-1h-6z"/><path style="fill:#f4f4f7;opacity:.1" d="M3.4 2C2.625 2 2 2.625 2 3.4v1C2 3.625 2.625 3 3.4 3h25.2c.775 0 1.4.625 1.4 1.4v-1c0-.775-.625-1.4-1.4-1.4H3.4z"/></svg>

<svg xmlns="http://www.w3.org/2000/svg" width="32" height="32" version="1">
 <rect style="opacity:0.2" width="28" height="28" x="2" y="3" rx="1.4" ry="1.4"/>
 <rect style="fill:#4f4f4f" width="28" height="28" x="2" y="2" rx="1.4" ry="1.4"/>
 <path style="opacity:0.2" d="m 5,7 0,3 0,17 4,0 0,-16 18,0 0,-4 -19,0 z m 6,6 0,8 4,0 0,-8 z m 6,0 0,10 -6,0 0,4 10,0 0,-4 0,-10 z m 6,0 0,14 4,0 0,-14 z"/>
 <path style="fill:#3693ee" d="M 5,6 5,9 5,26 9,26 9,10 27,10 27,6 8,6 Z m 6,6 0,8 4,0 0,-8 z m 6,0 0,10 -6,0 0,4 10,0 0,-4 0,-10 z m 6,0 0,14 4,0 0,-14 z"/>
 <path style="opacity:0.2;fill:#f4f4f7" d="M 5 6 L 5 7 L 8 7 L 27 7 L 27 6 L 8 6 L 5 6 z M 11 12 L 11 13 L 15 13 L 15 12 L 11 12 z M 17 12 L 17 13 L 21 13 L 21 12 L 17 12 z M 23 12 L 23 13 L 27 13 L 27 12 L 23 12 z M 11 22 L 11 23 L 17 23 L 17 22 L 11 22 z"/>
 <path style="fill:#f4f4f7;opacity:0.1" d="M 3.4003906 2 C 2.6247906 2 2 2.6247906 2 3.4003906 L 2 4.4003906 C 2 3.6247906 2.6247906 3 3.4003906 3 L 28.599609 3 C 29.375209 3 30 3.6247906 30 4.4003906 L 30 3.4003906 C 30 2.6247906 29.375209 2 28.599609 2 L 3.4003906 2 z"/>
</svg>
